X: 1
T: Rose Valley Pass
C: Grace Fellows
R: waltz
M: 3/4
L: 1/8
K: Dm
D FG |"Dm" A3 D FG |"Bb" A c2 D FG |"F" A2 c2 c2 |"G7" =B4 c2 |
"Am"=B3 A GF |"C" EF G2 FE |"Am" C A,-A,4-|A,3 D FG |
"Dm"A3 D FG |"Bb" A c2 D FG |"F" A2 G2 F2 |"G7" G4 A2 |
"Am"G3 F ED |"A7" F2 E2 D^C |"Dm" D6-|D3 F Ac |
"Bb"d3 c de |"Dm" f3 e fg |"F" a3 g f2 |"C7" g4 ag |
"Dm"f3 e dc |"Bb" B3 A GF |"C7" G6-|G3 F Ac |
"Bb"d3 c de |"Dm" f3 e fg |"F" a3 g f2 |"C7" g4 ag |
"Dm"fe dc "F"AF | "A7"G3 F D2 | "Dm"D6-|D3 ||

